X: 3
T:Breaking 'Em Up Is Hard To Do
C:David Grisman
N:Transcribed by Wendy Anthony  from David Grisman Tab on MandoZine   1985 Dawg arrangement
L:1/8
Q:1/4=120
M:6/8
K:C
"C""C"CEG ceg | c'ge cGE | C6 | "Am""Am"A,CE Ace | aec AEC | A,6 | "F""F"FAc fac' | 
f'c'a fcA | F6 | "Dm""Dm"DFA cfa | d'af dAF | D6 | "Bb""Bb"_B,DF _Bdf | _bfd _BFD | 
_B,6 | "Gm""Gm"G,_B,D G_Bd | gd_B GD_B, | G,6 | "Eb""Eb"^DG_B ^dg_b | ^d'_bg ^d_BG | 
^D6 | "Cm""Cm"C^DG c^dg | c'g^d cG^D | C6 | "Ab"^G,C^D ^Gc^d | ^g^dc ^G^DC | ^G,6 | 
"Fm""Fm"F^Gc f^gc' | f'c'^g fc^G | F6 |

